src/public/img/logo-symbol.svg

<svg fill="none" height="96" viewBox="0 0 147 96" width="147" xmlns="http://www.w3.org/2000/svg"><g fill="#1e1e1e"><path d="m38.1081 20h25.8919v6.0156h-25.8919zm-38.1081 6.0156v-6.0156h21.2973l24.973 49.9844h17.7297v6.0156h-21.2973l-24.973-49.9844z"/><path clip-rule="evenodd" d="m88.2059 32.9658c-4.9401-3.1991-8.2059-8.7376-8.2059-15.0344 0-9.90324 8.0782-17.9314 18.0431-17.9314h30.9139c9.965 0 18.043 8.02816 18.043 17.9314 0 6.2968-3.266 11.8353-8.206 15.0344 4.94 3.199 8.206 8.7377 8.206 15.0344 0 9.9032-8.078 17.9313-18.043 17.9313h-.329c-4.711 0-8.999-1.7939-12.213-4.7318v16.7054c0 10.0139-8.255 18.0949-18.2901 18.0949-9.9445 0-18.1249-8.0078-18.1249-17.9314 0-6.2966 3.2657-11.8352 8.2056-15.0342-4.9399-3.199-8.2056-8.7376-8.2056-15.0342 0-6.2967 3.2658-11.8354 8.2059-15.0344zm28.2091 15.0344c0 6.7032 5.468 12.1371 12.213 12.1371h.329c6.745 0 12.213-5.4339 12.213-12.1371s-5.468-12.1372-12.213-12.1372h-.329c-6.745 0-12.213 5.434-12.213 12.1372zm-5.83-12.1372h-12.5419c-6.7449 0-12.2127 5.434-12.2127 12.1372 0 6.6896 5.4457 12.115 12.1717 12.1371h.0191 12.5638zm-12.5419 30.0685c-.0137 0-.0273 0-.041 0-6.726.0219-12.1717 5.4475-12.1717 12.1371 0 6.6829 5.5291 12.1372 12.2945 12.1372 6.8561 0 12.4601-5.5274 12.4601-12.3007v-11.9736zm12.5419-35.863h-12.5419c-6.7449 0-12.2127-5.4339-12.2127-12.1371s5.4678-12.13716 12.2127-12.13716h12.5419zm18.372 0h-12.542v-24.27426h12.542c6.745 0 12.213 5.43396 12.213 12.13716s-5.468 12.1371-12.213 12.1371z" fill-rule="evenodd"/></g></svg>

<svg width="147" height="96" viewBox="0 0 147 96" fill="none" xmlns="http://www.w3.org/2000/svg">
<path d="M38.1081 20H64V26.0156H38.1081V20ZM0 26.0156V20H21.2973L46.2703 69.9844H64V76H42.7027L17.7297 26.0156H0Z" fill="#1E1E1E"/>
<path fill-rule="evenodd" clip-rule="evenodd" d="M88.2059 32.9658C83.2658 29.7667 80 24.2282 80 17.9314C80 8.02816 88.0782 0 98.0431 0H128.957C138.922 0 147 8.02816 147 17.9314C147 24.2282 143.734 29.7667 138.794 32.9658C143.734 36.1648 147 41.7035 147 48.0002C147 57.9034 138.922 65.9315 128.957 65.9315H128.628C123.917 65.9315 119.629 64.1376 116.415 61.1997V77.9051C116.415 87.919 108.16 96 98.1249 96C88.1804 96 80 87.9922 80 78.0686C80 71.772 83.2657 66.2334 88.2056 63.0344C83.2657 59.8354 80 54.2968 80 48.0002C80 41.7035 83.2658 36.1648 88.2059 32.9658ZM116.415 48.0002C116.415 54.7034 121.883 60.1373 128.628 60.1373H128.957C135.702 60.1373 141.17 54.7034 141.17 48.0002C141.17 41.297 135.702 35.863 128.957 35.863H128.628C121.883 35.863 116.415 41.297 116.415 48.0002ZM110.585 35.863H98.0431C91.2982 35.863 85.8304 41.297 85.8304 48.0002C85.8304 54.6898 91.2761 60.1152 98.0021 60.1373H98.0212H110.585V35.863ZM98.0431 65.9315C98.0294 65.9315 98.0158 65.9315 98.0021 65.9315C91.2761 65.9534 85.8304 71.379 85.8304 78.0686C85.8304 84.7515 91.3595 90.2058 98.1249 90.2058C104.981 90.2058 110.585 84.6784 110.585 77.9051V65.9315H98.0431ZM110.585 30.0685H98.0431C91.2982 30.0685 85.8304 24.6346 85.8304 17.9314C85.8304 11.2282 91.2982 5.79424 98.0431 5.79424H110.585V30.0685ZM128.957 30.0685H116.415V5.79424H128.957C135.702 5.79424 141.17 11.2282 141.17 17.9314C141.17 24.6346 135.702 30.0685 128.957 30.0685Z" fill="#1E1E1E"/>
</svg>
